X:1
T:The Gracious Redeemer
T:The Gracious Redeemer
T:William Augustine Ogden
T:Jennie Cranston, 1902
T:Public Domain Courtesy of the Cyber Hymnal™
T:Public Domain Courtesy of the Cyber Hymnal™
C:William Augustine Ogden
Z:Public Domain
Z:Courtesy of the Cyber Hymnal™
%%score 1 ( 2 3 )
L:1/8
Q:1/4=105
M:6/8
K:Ab
V:1 treble 
V:2 bass 
V:3 bass 
V:1
 [CA]3 [CE]3 | [Ec]3 [EA]2 z | [FA][EG][DF] [FA][EG][DF] | [CE]3 [CA]2 z | [Ec]3 [EA]3 | %5
w: 1.~Glo- ry,|glo- ry,|God is our heav- en- ly|Fa- ther;|Thro’ His|
w: 2.~Par- don,|par- don,|Je- sus has pur- chased our|par- don;|Thro’ His|
w: 3.~Prais- es,|prais- es,|sing to the Sav- ior our|prais- es!|Hal- le-|
 [Ee]3 [Ec]3 | [EB][Ec][EB] [=DA]2 [DF] | ([EG-]3 [DG]2) z |!f! [CA]3 [CE]3 | [Ec]3 [EA]2 z | %10
w: love He|gave us His on- ly|Son, *|To re-|deem us,|
w: death He|gave to us hope and|love. *|Shep- herd,|lead us|
w: lu- jah,|grace reach- es ev- en|me; *|Worth- y,|ev- er,|
 [FA][EG][DF] [FA][EG][DF] | [CE]3 [CA]2 z | [Ec]3 [_Ge]3 | [FA]3 [Fd]3 | [Ec][EA][Ec] [DB]2 [DB] | %15
w: heirs of His glo- ry for-|ev- er,|Heav’n and|earth a-|dore Him, the Ho- ly|
w: close by the wa- ters e-|ter- nal,|Com- ing|down from|fount- ains of grace a-|
w: He who hath brought us sal-|va- tion,|Throned a-|bove, our|King and our Lord to|
 [CA]3- [CA]2 z ||"^Refrain" [EB]3 [=DB]3 | [EB]3- [EB]2 z | [=DB][Dc][DB] [DA][DG][DF] | %19
w: One. *||||
w: bove. *|Sing, O|sing! *|Sing of the gra- cious Re-|
w: be. *||||
 [EG]3 [EB]2 z | [EB]3 [Ec]3 | [Ed]3- [Ed]2 [EB] | [Ec][EB][EA] [Ee]2 [Ec] | [EB]3- [EB]2 z | %24
w: |||||
w: deem- er;|Sing, O|sing! * His|mar- ve- lous power make|known. *|
w: |||||
 [CA]3 [CE]3 | [Ec]3 [EA]2 z | [FA][EG][DF] [FA][EG][DF] | [CE]3 [CA]2 z | [Ec]3 [_Ge]3 | %29
w: |||||
w: Praise Him,|praise Him,|He is our Shep- herd e-|ter- nal,|High in|
w: |||||
 [FA]3 [Fd]3 | [Ec][EA][Ec] [DB]2 [DB] | [CA]3- [CA]2 z |] %32
w: |||
w: power, He|reign- eth up- on the|throne. *|
w: |||
V:2
 [A,,E,]3 [A,,A,]3 | [A,,A,]3 [C,A,]2 z | [D,A,][D,A,][D,A,] [D,A,][D,A,][D,A,] | %3
 [A,,A,]3 [A,,A,]2 z | A,3 [A,C]3 | [G,B,]3 A,3 | [E,G,][E,A,][E,G,] [B,,F,]2 [B,,B,] | %7
 [E,B,]3- [E,B,]2 z | [A,,A,]3 [A,,A,]3 | [A,,A,]3 [C,A,]2 z | %10
 [D,A,][D,A,][D,A,] [D,A,][D,A,][D,A,] | [A,,A,]3 [A,,A,]2 z | A,3 [C,A,]3 | [D,A,]3 [B,,A,]3 | %14
 [E,A,][E,C][E,A,] [E,G,]2 [E,G,] | [A,,A,]3- [A,,A,]2 z || [E,G,]3 [F,A,]3 | ([G,B,]3 [E,G,]2) z | %18
 [B,,F,][B,,F,][B,,F,] [B,,F,][B,,B,][B,,B,] | [E,B,]3 [E,G,]2 z | [E,G,]3 [E,A,]3 | %21
 [E,B,]3- [E,B,]2 [E,G,] | A,[A,D][A,C] [G,B,]2 A, | [E,G,]3- [E,G,]2 z | [A,,A,]3 [A,,A,]3 | %25
 [A,,A,]3 [C,A,]2 z | [D,A,][D,A,][D,A,] [D,A,][D,A,][D,A,] | [A,,A,]3 [A,,A,]2 z | A,3 [C,A,]3 | %29
 [D,A,]3 [B,,A,]3 | [E,A,][E,C][E,A,] [E,G,]2 [E,G,] | [A,,A,]3- [A,,A,]2 z |] %32
V:3
 x6 | x6 | x6 | x6 | A,3 x3 | x3 A,3 | x6 | x6 | x6 | x6 | x6 | x6 | A,3 x3 | x6 | x6 | x6 || x6 | %17
 x6 | x6 | x6 | x6 | x6 | A, x3 A, x | x6 | x6 | x6 | x6 | x6 | A,3 x3 | x6 | x6 | x6 |] %32

